!!!!SEGMENT: pl-sa--552-a-ix-32--008_anonim--valtz.krn
!!!cenid: 18xx:519
!!!COM: Anonim
!!!COM-rismid: pe30004985
!!!CDT:
!!!CNT:
!!!OTL: Valtz
!!!PDT:
!!!AGN: Secular; Waltz
!!!SMS-siglum: PL-SA
!!!SMS-shelfmark: 552/A IX 32
!!!SMS-shelfwork: 008 W
!!!SMS-variant:
!!!SMS-altvar:
!!!NIFC-rismid: 1001069499
!!!system-decoration: {(s1,s2)}
**kern	**kern
*part2	*part1
*staff2	*staff1
*Iempty	*Ipiano
*	*I"Piano
*clefF4	*clefG2
*k[f#]	*k[f#]
*G:	*G:
*M3/8	*M3/8
*>[A,A,B,B]	*>[A,A,B,B]
=1	=1
*>A	*>A
!	!LO:TX:a:Bi:t=Vpl-sa--552-a-ix-32--008_anonim-valtz.krnaltz:rj
!LO:TX:a:t=P:mixed beam:problem	!
8GG/L	8b\L
8B 8G\	8ddT>\
8BJ 8G\	8gg\J
=2	=2
*rep	*
!LO:TX:a:t=P:mixed beam:problem	!
8GG/L	8dd\L
8B 8G\	8ggT>\
8BJ 8G\	8bb\J
*Xrep	*
=3	=3
8D\L	16ff#\LL
.	16dd\
8A 8F#\	16ff#\
.	16aa\
8AJ 8F#\	16ccc\
.	16aa\JJ
=4	=4
!LO:TX:a:t=P:mixed beam:problem	!
8GG/L	16gg\LL
.	16aa\
8B 8G\	16bb\
.	16ccc\J
8BJ 8G\	8ddd\J
=5	=5
*rep	*
!LO:TX:a:t=P:mixed beam:problem	!
8GG/L	8b\L
8B 8G\	8ddT>\
8BJ 8G\	8gg\J
*Xrep	*
=6	=6
*rep	*
!LO:TX:a:t=P:mixed beam:problem	!
8GG/L	8dd\L
8B 8G\	8ggT>\
8BJ 8G\	8bb\J
*Xrep	*
=7	=7
8D\L	16ff#\LL
.	16gg\
8A 8F#\	16aa\
.	16bb\
8AJ 8F#\	16ccc\
.	16aa\JJ
=8	=8
!LO:TX:a:t=P:mixed beam:problem	!
8GG/L	4gg\
8B 8G\	.
8BJ 8G\	8r
=9:|!|:	=9:|!|:
*>B	*>B
8D 8DD/	16ff#\LL
.	16dd\
8AL 8F#\	16ff#\
.	16ddd\J
8AJ 8F#\	8ccc\J
=10	=10
!LO:TX:a:t=P:mixed beam:problem	!
8GG/L	16ccc\LL
.	16bb\
8B 8G\	16aa\
.	16bb\J
8BJ 8G\	8gg\J
=11	=11
8F#L 8D\	16ff#\LL
.	16ee\
8A 8F#\	16ff#\
.	16dd\
8AJ 8F#\	16ee\
.	16ff#\JJ
=12	=12
!LO:TX:a:t=P:mixed beam:problem	!
8GG/L	16gg\LL
.	16ff#\
8B 8G\	16gg\
.	16aa\
8BJ 8G\	16bb\
.	16gg\JJ
=13	=13
8F#L 8D\	16ff#\LL
.	16dd\
8A 8F#\	16ff#\
.	16aa\
8AJ 8F#\	16ddd\
.	16ccc\JJ
=14	=14
!	!LO:TX:a:t=P:dźwięk 4ccc przyjęto jako przednutkę:problem
.	4qqccc\
!LO:TX:a:t=P:mixed beam:problem	!
8G\L	8gg\L
8GG/J	8gg\J
!	!LO:TX:a:t=P:w źródle po kresce końcowej dodatkowy takt [nie wpisano]:problem
8r	8r
==	==
*-	*-
!!title: @{OTL};
!!!RDF**kern: > = above
!!!RDF**kern: < = below
!!!EED: Wojciech Jakubiak-Danek
!!!EST: 2020-12-11
!!!URL-scan: http://bc.bdsandomierz.pl/dlibra/publication/1308/edition/1276/content
!!!ONB-nifc: Str. 4, s. 6. Ostatni takt w innej tonacji nie należy do utworu.
!!!ENC: Andrzej Kubiczek
!!!END: 2020-06-17
